!!!COM: Palestrina, Giovanni Perluigi da
!!!OPR: Missa Gia fu chi m'ebbe cara
!!!OMD: Credo
!!!OTL: Crucifixus
**kern	**kern	**kern	**kern
*Itenor	*Icalto	*Icalto	*Icant
!Tenor	!Altus 2	!Altus 1	!Cantus
*clefGv2	*clefG2	*clefG2	*clefG2
*k[]	*k[]	*k[]	*k[]
*D:dor	*D:dor	*D:dor	*D:dor
*M4/2	*M4/2	*M4/2	*M4/2
=76	=76	=76	=76
1r	0r	0a	0r
[1A	.	.	.
=77	=77	=77	=77
1A]	0a	1e	0r
1d	.	1f	.
=78	=78	=78	=78
1c	1e	1g	0r
2F	1f	2a	.
[2f	.	2a	.
=79	=79	=79	=79
2f]	1g	2cc	1r
2e	.	2.cc	.
2.f	2a	.	[1a
.	.	4b	.
.	2d	4a	.
4e	.	4g	.
=80	=80	=80	=80
2d	4f	4f	1a]
.	4g	8e	.
.	.	8d	.
2c	1a	2e	.
1B-	.	1d	1dd
.	2g	.	.
=81	=81	=81	=81
1A	1.a	2e	1cc
.	.	1cc	.
1d	.	.	2f
.	4g	2b	[2ff
.	4f	.	.
=82	=82	=82	=82
1c	1g	2.cc	2ff]
.	.	.	2ee
.	.	4b	.
[1d	2.f	2.a	2.ff
.	4g	4g	4ee
=83	=83	=83	=83
2d]	1a	2f	2dd
2A	.	1a	2cc
1e	2r	.	1b
.	2e	2g#	.
=84	=84	=84	=84
1A	2f	0a	2a
.	2e	.	2ee
2r	2d	.	2ff
2A	2c#	.	2ee
=85	=85	=85	=85
2.B-	1d	2r	2.dd
.	.	2f	.
4A	.	.	4cc
2G	2g	2b-	4dd
.	.	.	4ee
2F	2a	2a	2ff
=86	=86	=86	=86
1G	1b-	2.g	2ee
.	.	.	1dd
.	.	4f	.
1A	1a	1e	.
.	.	.	2cc#
=87	=87	=87	=87
1r	2r	1d	1dd
.	1a	.	.
1d	.	1f#	1a
.	[2d	.	.
=88	=88	=88	=88
1G	2d]	1g	1b
.	1g	.	.
1c	.	1e	1cc
.	[2e	.	.
=89	=89	=89	=89
1A	2e]	1a	1cc
.	1f	.	.
1B-	.	2d	[1dd
.	[2g	2b-	.
=90	=90	=90	=90
1d	4g]	2a	2dd]
.	4f	.	.
.	1f	4g	2a
.	.	4f	.
1c	.	1g	1cc
.	2e	.	.
=91	=91	=91	=91
0r	1f	2a	2r
.	.	2d	2a
.	1r	2.f	2.a
.	.	4e	4g
=92	=92	=92	=92
0r	0r	2f	2a
.	.	2d	2b
.	.	2c	2cc
.	.	2f	2a
=93	=93	=93	=93
2r	0r	0e	2g
2A	.	.	4cc
.	.	.	4b
2.A	.	.	4cc
.	.	.	4dd
.	.	.	[2ee
4G	.	.	.
=94	=94	=94	=94
2A	1r	1f	2ee]
2B	.	.	2dd
2c	2r	1e	2ee
2A	2e	.	2cc
=95	=95	=95	=95
2G	2.g	0r	2b
4c	.	.	2cc
4d	4f	.	.
4e	2g	.	2.b
4f	.	.	.
4g	2e	.	.
4e	.	.	8a
.	.	.	8g
=96	=96	=96	=96
4f	2d	0r	1a
4g	.	.	.
1a	2f	.	.
.	1e	.	1b
2g#	.	.	.
=97	=97	=97	=97
1a	2.f	2r	[0a
.	.	2d	.
.	8e	.	.
.	8d	.	.
2r	2e	2c	.
2d	2f	2d	.
=98	=98	=98	=98
2c	2r	2e	1a]
2d	2d	4f	.
.	.	4g	.
2e	2c	1a	2r
[2f	2d	.	2dd
=99	=99	=99	=99
4f]	1f	2.a	2cc
4e	.	.	.
2d	.	.	2dd
.	.	4b	.
2c	2g	4cc	2ee
.	.	4b	.
[2d	4f	4a	[2ff
.	4e	4g	.
=100	=100	=100	=100
4d]	1d	2f	4ff]
4c	.	.	4ee
2B-	.	2g	1dd
1A	2e	1a	.
.	2e	.	2cc#
=101	=101	=101	=101
1d	1.f	2r	2dd
.	.	2d	2a
1r	.	2a	[1cc
.	2e	2g	.
=102	=102	=102	=102
0r	2f	2a	2cc]
.	2g	2g	2b
.	1a	1f	2cc
.	.	.	2dd
=103	=103	=103	=103
0r	2g	2.e	1ee
.	2cc	.	.
.	.	4f#	.
.	2b	1g	2dd
.	2g	.	2gg
=104	=104	=104	=104
0r	2a	1r	2ff
.	2b	.	2dd
.	2cc	2r	2ee
.	2a	2cc	2ff
=105	=105	=105	=105
0r	2g	2b	2gg
.	2c	2g	2.ee
.	2f	2a	.
.	.	.	4dd
.	2g	2b	2dd
=106	=106	=106	=106
2r	2c	2cc	2ee
2f	2.cc	2a	2cc
2e	.	2g	2ee
.	4b	.	.
2c	[2a	2cc	2ee
=107	=107	=107	=107
2d	2a]	1b	2ff
2e	2g	.	4ee
.	.	.	4dd
2f	2.a	2a	2cc
2d	.	2f	[2ff
.	4b	.	.
=108	=108	=108	=108
1c	0cc	1g	2ff]
.	.	.	2ee
2r	.	2f	1ff
2f	.	2a	.
=109	=109	=109	=109
2.f	2r	2.a	2r
.	2a	.	2ff
4e	.	4g	.
[1d	2.a	1f	2.ff
.	4g	.	4ee
=110	=110	=110	=110
2d]	2f	2a	2dd
2A	2a	1cc	2ff
2c	2g	.	2ee
2d	2f	2a	2dd
=111	=111	=111	=111
[0A	2e	1a	1ee
.	2cc	.	.
.	2.cc	2r	2r
.	.	2cc	2ee
.	4b	.	.
=112	=112	=112	=112
0A]	1.a	2.cc	2.ee
.	.	4b	4dd
.	.	2a	2cc
.	2e	2cc	2ee
=113	=113	=113	=113
1r	2g	2b	2dd
.	2a	2a	2cc
2r	1e	1g	2b
2c	.	.	2ee
=114	=114	=114	=114
4c	2r	2r	4ee
4B	.	.	4dd
4A	2cc	2a	4cc
4G	.	.	4b
1F	4cc	4a	[1a
.	4b	4g	.
.	4a	4f	.
.	4g	4e	.
=115	=115	=115	=115
1F	2f	2d	2a]
.	2f	2c	2a
[1G	2e	2.g	[1b-
.	2d	.	.
.	.	4f	.
=116	=116	=116	=116
2G]	2.g	2e	2b-]
2G	.	2d	2b-
.	4f	.	.
2A	2e	2c	2a
[2A	[2a	[2e	[2cc
=117	=117	=117	=117
2A]	2a]	2e]	2cc]
2F	2a	2f	2cc
1B-	2f	1d	1dd
.	2g	.	.
=118	=118	=118	=118
1A	1a	2e	2cc
.	.	2e	2ee
1r	1r	2f	2dd
.	.	2g	2b
=119	=119	=119	=119
0r	2r	1a	1cc
.	2a	.	.
.	2g	2.e	2b
.	2e	.	2ee
.	.	8f	.
.	.	8g	.
=120	=120	=120	=120
2r	1f	1a	2cc
2d	.	.	2dd
2c	2e	2r	2ee
2A	2c	2a	[2ff
=121	=121	=121	=121
1B-	1d	2f	4ff]
.	.	.	4ee
.	.	2g	1dd
2A	1e	[1a	.
2A	.	.	2cc#
=122	=122	=122	=122
2d	1f#	1a]	[0dd
2d	.	.	.
1G	1g	1b-	.
=123	=123	=123	=123
0d	0f#	0a	0dd]
*-	*-	*-	*-
!!!CDT: 1525/^1526/-1594/2/2
!!!OCY: Italia
!!!AGN: Mass (Parody)
!!!AST: renaissance, vocal
!!!ASW: Madrigal 1555 (Palestrina)
!!!PWK: Masses, Book 10
!!!RNB: Cadence finals: A
!!!YOR: Le Opere Complete, v. 27, p. 30
!!!YOO: Rome, Italy: Fratelli Scalera
!!!END: 1992//
!!!EED: John Miller
!!!YEC: Copyright 2000, John Miller
!!!YEN: United States of America
!!!YEM: Rights to all derivative electronic formats reserved.
!!!YEM: Refer to licensing agreement for further details.
!!!YEM: This file must be accompanied by the licensing agreement.
!!!YEM: A copy of the licensing agreement may be found at http://www.music-cog.ohio-state.edu/HumdrumDatabases/Palestrina/license.txt
!!!EMD: converted to Humdrum by Bret Aarden
